X: 1
T: Money In Both Pockets
M: 4/4
L: 1/8
S: Brendan Mulvihill and Billy McComiskey, with Zan McLeod, in concert at the Kennedy Center, Millenium Stage, December 26, 2003.
K: D
dA A/A/A dAFA|dA A/A/A g2 fe|dA A/A/A dAFA|G~E3 GABc :||
dcdf edcA|B/c/d ef g2 fe|dcdf edcA|G~E3 GABc|
dcdf edcA|B/c/d ef g2 fg|abaf gfed|B/c/d ef g2 fe ||
